!!!COM:	Josquin des Prez
!!!CDT:	~1450-1521/08/27
!!!OPR:	Missa L'homme arm&eacute; super voces musicales
!!!ONM:	1
!!!OTL:	Kyrie
!!!AGN:	Mass; Kyrie
!!!SCT:	NJE 6.3
!!!SCA:	New Josquin Edition 6.3
!!!voices: 4
!!!voices-OPR:	4
**kern	**kern	**kern	**kern
*staff4	*staff3	*staff2	*staff1
*Ivox	*Ivox	*Ivox	*Ivox
*I"Bassus	*I"Tenor	*I"Altus	*I"Superius
*I'B	*I'T	*I'A	*I'S
*>[A,B,C]	*>[A,B,C]	*>[A,B,C]	*>[A,B,C]
*>Kyrie1[A]	*>Kyrie1[A]	*>Kyrie1[A]	*>Kyrie1[A]
*>Christe[B]	*>Christe[B]	*>Christe[B]	*>Christe[B]
*>Kyrie2[C]	*>Kyrie2[C]	*>Kyrie2[C]	*>Kyrie2[C]
*>A	*>A	*>A	*>A
*clefF4	*clefGv2	*clefGv2	*clefG2
*k[]	*k[]	*k[]	*k[]
*	*rscale:1/2	*	*
*M3/1	*M3/0	*M3/1	*M3/1
*met(O)	*met(O.)	*met(O)	*met(O)
!!primary-mensuration: met(O)
!!section: Kyrie I
!!!OMD: Kyrie I
=1-	=1-	=1-	=1-
!	!LO:TX:Z=6:t=Mensuration canon at upper ninth	!	!
0.D	0.r	0d	0.r
.	.	1f	.
=2	=2-	=2	=2
0G	0.r	2e\	0.r
.	.	1d	.
.	.	2c\	.
1G	.	1B	.
=3	=3-	=3	=3
2F\	0.r	2A/	1d
2.G\	.	2.B\	.
.	.	.	2d/
4F\	.	4A/	.
4E\	.	4B\	1g
4D\	.	2d\	.
1E	.	.	.
.	.	8c#i\L	.
.	.	8B\J	.
.	.	2c#i\	2g/
=4	=4	=4	=4
2D\	0.r	1d	2f/
1A	.	.	1e
.	.	2c\	.
2F\	.	2.d\	2d/
2G\	.	.	1e
.	.	4B\	.
2A\	.	2c#i\	.
=5	=5-	=5	=5
2D\	0.r	2d\	1d
2G\	.	2B\	.
2F\	.	2c\	2r
1D	.	2d\	2a/
.	.	2A/	2a/
2G\	.	2B\	2d/
=6	=6-	=6	=6
2F\	0.r	2c\	2r
2.D\	.	2d\	1a
.	.	2A/	.
4C/	.	.	.
4D\	.	4B\	2a/
4E\	.	2c\	.
4F\	.	.	2.a/
4D\	.	4d\	.
2E\	.	2B\	.
.	.	.	4g/
=7	=7	=7	=7
2AA/	0C	2A/	2a/
2.C/	.	2.e\	2.g/
4D\	.	4d\	4f/
2E\	.	4c\	4e/
.	.	4B\	4d/
1AA	1C	1c	4e/
.	.	.	4d/
.	.	.	2e/
=8	=8-	=8	=8
0BB-	0.F	0d	1d
.	.	.	2r
.	.	.	2d/
2.BB-i/	.	1d	2.f/
4AA/	.	.	4g/
=9	=9-	=9	=9
1FF	1F	1.c	1a
1r	0E	.	0g
.	.	4B\	.
.	.	4A/	.
1C	.	2.G/	.
.	.	4A/	.
=10	=10	=10	=10
2D\	0D	2B-\	1f
1F	.	2A/	.
.	.	1F	2d/
4E\	.	.	2f/
4D\	.	.	.
1E	1C	1G	4e/
.	.	.	4d/
.	.	.	4c/
.	.	.	4B/
=11	=11-	=11	=11
1F	0.D	1.F	2A/
.	.	.	2.d/
0BB-i	.	.	.
.	.	.	4e/
.	.	4E/	1f
.	.	4D/	.
.	.	1F	.
.	.	.	4e/
.	.	.	4d/
=12	=12-	=12	=12
0AA	0C	2r	2e/
.	.	1c	2.a/
.	.	.	4b\
.	.	4B\	1cc
.	.	4A/	.
1AA	1r	1c	.
.	.	.	4b\
.	.	.	4a/
=13	=13	=13	=13
2.GG/	1G	1.d	2b\
.	.	.	2g/
4AA/	.	.	.
2BB/	1G	.	2r
2.C/	.	2G/	2.e/
.	1C	2.c\	.
4D\	.	.	4f/
2E\	.	.	2g/
.	.	4B\	.
=14	=14-	=14	=14
2F\	1r	2A/	2a/
2G\	.	2G/	2d/
2.GG/	0G	2.B\	2r
.	.	.	1g
4AA/	.	4c\	.
2BB/	.	2d\	.
[2C/	.	2G/	2e/
=15	=15-	=15	=15
4C/]	1G	1c	2.g/
4D\	.	.	.
4E\	.	.	.
4F\	.	.	4f/
2G\	1.G	2B\	2d/
1C	.	1c	1e
2D\	2F/	4B\	[2d/
.	.	4A/	.
=16	=16	=16	=16
1E	1G	1G	2d/]
.	.	.	2c#i/
2.D\	1.F	2r	2d/
.	.	2.A/	1a
4E\	.	.	.
2F\	.	.	.
.	.	4B\	.
2G\	2E/	2c\	2g/
=17	=17-	=17	=17
0.A	2D/	4d\	2f/
.	.	4D/	.
.	2C/	2E/	2e/
.	2D/	2D/	2f/
.	2C/	2E/	2e/
.	1D	4D/	2f/
.	.	4E/	.
.	.	4F/	2d/
.	.	4D/	.
=18	=18-	=18	=18
!	!LO:N:vis=1	!	!
0.AAl	0.C	0.Al	0.el
*	*rscale:1	*	*
!!LO:LB:i:g=z
=19||	=19||	=19||	=19||
*>B	*>B	*>B	*>B
*clefF4	*clefGv2	*clefGv2	*clefG2
*k[]	*k[]	*k[]	*k[]
*	*rscale:1/4	*	*
*M2/1	*M12/0	*M2/1	*M2/1
*met(C|)	*met(C.)	*met(C|)	*met(C|)
!!primary-mensuration: met(C|)
!!section: Christe
!!!OMD: Christe
!	!LO:TX:Z=6:t=Canon&colon; Tenor. On a fait par tout crier	!	!
!	!LO:N:vis=1.	!	!
1.A	0r	0r	1e
.	.	.	2f/
[2G\	.	.	[2g/
=20	=20-	=20	=20
1G]	0ryy	1r	4g/]
.	.	.	4f/
.	.	.	4e/
.	.	.	4d/
2.A\	.	1e	1c
4G\	.	.	.
=21	=21-	=21	=21
2E\	0ryy	2e\	0r
2G\	.	1d	.
1F	.	.	.
.	.	2d\	.
=22	=22-	=22	=22
!	!LO:N:vis=1.	!	!
1E	0r	2e\	2r
.	.	2c\	2e/
1r	.	1B	2.g/
.	.	.	4a/
=23	=23-	=23	=23
1E	0ryy	1e	2b\
.	.	.	2cc\
1G	.	2e\	2b\
.	.	[2d\	[2dd\
=24	=24-	=24	=24
1F	0ryy	2d\]	4dd\]
.	.	.	4cc\
.	.	2d\	4b\
.	.	.	4a/
1E	.	2e\	1g
.	.	2c\	.
=25	=25	=25	=25
!	!LO:N:vis=1.	!	!
1.G	0r	1B	2r
.	.	.	2.g/
.	.	1e	.
.	.	.	4a/
2F\	.	.	4b\
.	.	.	4cc\
=26	=26-	=26	=26
2D\	0ryy	1.f	2.dd\
2.F\	.	.	.
.	.	.	4cc\
.	.	.	2a/
4E\	.	.	.
2C/	.	2e\	2cc\
=27	=27-	=27	=27
1D	0ryy	2d\	2b\
.	.	2c\	1a
1E	.	1B	.
.	.	.	2g#i/
=28	=28-	=28	=28
!	!LO:N:vis=1	!	!
0AA	[y0c	1r	[0a
.	.	[1A	.
=29	=29-	=29	=29
1r	0c]yy	2A/]	0a]
.	.	2B\	.
[1A	.	2c\	.
.	.	2d\	.
=30	=30-	=30	=30
1A]	0c	1e	1r
1F	.	1f	1a
=31	=31	=31	=31
!	!LO:N:vis=1	!	!
1G	[y0B	1d	2b\
.	.	.	1g
[1E	.	[1e	.
.	.	.	4f/
.	.	.	4e/
=32	=32-	=32	=32
1E]	0B]yy	2e\]	2.g/
.	.	2d\	.
.	.	.	4f/
[1G	.	[1B	1d
=33	=33-	=33	=33
2G\]	0B	2B\]	1r
2F\	.	2c\	.
1D	.	1d	1d
=34	=34-	=34	=34
1C	0c	1G	2e/
.	.	.	1c
[1F	.	[1A	.
.	.	.	4B/
.	.	.	4A/
=35	=35-	=35	=35
!	!LO:N:vis=1	!	!
2F\]	[y0A	2A/]	2c/
2E\	.	2G/	2d/
1C	.	1E	1e
=36	=36-	=36	=36
0D	0A]yy	1F	2A/
.	.	.	2.f/
.	.	1D	.
.	.	.	4e/
.	.	.	4d/
.	.	.	4c/
=37	=37	=37	=37
!	!LO:N:vis=1.	!	!
[0E	[y0G	2r	1B
.	.	2.G/	.
.	.	.	2r
.	.	4A/	.
.	.	4B\	[2g/
.	.	4c\	.
=38	=38-	=38	=38
0E_	0G_yy	2B\	4g/]
.	.	.	4a/
.	.	[1.e	4b\
.	.	.	4cc\
.	.	.	2b\
.	.	.	[2cc\
=39	=39-	=39	=39
0E]	0G]yy	2e\]	2cc\]
.	.	4d\	4b\
.	.	4c\	4a/
.	.	1B	1g
=40	=40-	=40	=40
!	!LO:N:vis=1	!	!
1r	[y0c	0A	0r
2r	.	.	.
[2AA/	.	.	.
=41	=41-	=41	=41
4AA/]	0c]yy	1r	2r
4BB/	.	.	.
4C/	.	.	2a/
4D\	.	.	.
2E\	.	2r	2g/
[2F\	.	[2A/	[2a/
=42	=42-	=42	=42
2F\]	0c	4A/]	2a/]
.	.	4B\	.
4E\	.	4c\	4g/
4D\	.	4d\	4f/
1C	.	2e\	1e
.	.	2c\	.
=43	=43	=43	=43
!	!LO:N:vis=1	!	!
1r	[y0B	2d\	0r
.	.	2.G/	.
2r	.	.	.
.	.	4F/	.
[2GG/	.	2G/	.
=44	=44-	=44	=44
4GG/]	0B]yy	1D	2r
4AA/	.	.	.
4BB/	.	.	2g/
4C/	.	.	.
2D\	.	1r	2f/
[2E\	.	.	[2g/
=45	=45-	=45	=45
2E\]	0B	1r	2g/]
4D\	.	.	4f/
4C/	.	.	4e/
1BB	.	1D	1d
=46	=46-	=46	=46
[0AA	0c	1.A	0e
.	.	2B\	.
=47	=47-	=47	=47
!	!LO:N:vis=1	!	!
0AA_	[y0A	1.c	1r
.	.	.	[1cc
.	.	4B\	.
.	.	4A/	.
=48	=48-	=48	=48
0AA]	0A]yy	2c\	2cc\]
.	.	2d\	4b\
.	.	.	4a/
.	.	2e\	1cc
.	.	2f\	.
=49	=49	=49	=49
!	!LO:N:vis=1.	!	!
[0E	[y0G	2.g\	1.b
.	.	4f\	.
.	.	4e\	.
.	.	4d\	.
.	.	[2e\	[2cc\
=50	=50-	=50	=50
0E_	0G_yy	2e\]	2cc\]
.	.	4d\	4b\
.	.	4c\	4a/
.	.	1B	1g
=51	=51-	=51	=51
0E]	0G]yy	0r	1r
.	.	.	1g
=52	=52-	=52	=52
!	!LO:N:vis=1.	!	!
1F	[y0c	0r	1a
1E	.	.	1g
=53	=53-	=53	=53
0F	0c_yy	0A	1a
.	.	.	[1cc
=54	=54-	=54	=54
0E	0c]yy	0G	2cc\]
.	.	.	2b\
.	.	.	1g
=55	=55	=55	=55
!	!LO:N:vis=1.	!	!
[0D	[y0d	0A	[0f
=56	=56-	=56	=56
0D_	0d_yy	1.F	1f]
.	.	.	1d
.	.	2G/	.
=57	=57-	=57	=57
0D]	0d]yy	1.A	0f
.	.	2B\	.
=58	=58-	=58	=58
0A	0c	1c	[0el
.	.	1A	.
=59	=59-	=59	=59
0G	0B	0E	0e_
=60	=60-	=60	=60
0A	0A	[0c	0e_
=61	=61	=61	=61
!	!LO:N:vis=1	!	!
[0El	[y0G	1c]	0e_
.	.	1B	.
=62	=62-	=62	=62
0E]	0G]yy	0Bl	0e]
*	*rscale:1	*	*
!!LO:LB:i:g=z
=63||	=63||	=63||	=63||
*>C	*>C	*>C	*>C
*clefF4	*clefGv2	*clefGv2	*clefG2
*k[]	*k[]	*k[]	*k[]
*	*rscale:1/2	*	*
*M3/1	*M9/1	*M3/1	*M3/1
*met(O|)	*met(O.)	*met(O|)	*met(O|)
!!!OMD: Kyrie II
!!section: Kyrie II
!	!LO:TX:Z=6:t=Canon&colon; Tenor. Lome arme.   Mensuration canon at lower third	!	!
0.r	0.r	1r	1A
.	.	1A	2.c/
.	.	.	4d/
.	.	2.c\	2e/
.	.	.	2f/
.	.	4d\	.
=64	=64-	=64	=64
1AA	0.r	2e\	2e/
.	.	1f	1a
1AA	.	.	.
.	.	4e\	4g/
.	.	4d\	4f/
1AA	.	1c#i	1e
=65	=65-	=65	=65
1D	0.r	1d	2d/
.	.	.	1f
2D\	.	1r	.
2C/	.	.	2e/
1BB	.	1d	2f/
.	.	.	2d/
=66	=66	=66	=66
1AA	0.C	1.c	1e
1r	.	.	2c/
.	.	2B\	2.e/
1E	.	[1G	.
.	.	.	4f/
.	.	.	4g/
.	.	.	4a/
=67	=67-	=67	=67
1E	0.C	1G]	2g/
.	.	.	2e/
1AA	.	0A	2r
.	.	.	2c/
1r	.	.	2.e/
.	.	.	4f/
=68	=68-	=68	=68
1E	0.C	1G	4g/
.	.	.	4a/
.	.	.	2.g/
1E	.	1r	.
.	.	.	4f/
.	.	.	4e/
.	.	.	4d/
1E	.	1G	2.c/
.	.	.	4B/
=69	=69	=69	=69
1D	0.F	0A	2d/
.	.	.	2.a/
2D\	.	.	.
.	.	.	4b\
2C/	.	.	2cc\
1BB	.	1D	1dd
=70	=70-	=70	=70
1AA	1F	2.A/	1.cc
.	.	4B\	.
1r	0E	4c\	.
.	.	4A/	.
.	.	1d	4b\
.	.	.	4a/
1r	.	.	1g
.	.	2c#i\	.
=71	=71-	=71	=71
0.BB-	0.D	0.d	2f/
.	.	.	2.b-\
.	.	.	4a/
.	.	.	1a
.	.	.	2g/
=72	=72	=72	=72
0AA	0.C	0e	1a
.	.	.	1.cc
1AA	.	1c	.
.	.	.	4b\
.	.	.	4a/
=73	=73-	=73	=73
2GG/	0.r	1d	1b
2.G\	.	.	.
.	.	2.G/	2r
4F\	.	.	.
2.E\	.	.	2.g/
.	.	4A/	.
.	.	2B\	.
4D\	.	.	4f/
2C/	.	2c\	2e/
=74	=74-	=74	=74
2BB/	0.G	2d\	2d/
2C/	.	4G/	2e/
.	.	4A/	.
2GG/	.	4B\	1d
.	.	4c\	.
2.G\	.	2d\	.
.	.	2.G/	2r
4F\	.	.	.
[2E\	.	.	[2g/
.	.	4A/	.
=75	=75	=75	=75
4E\]	0.G	2B\	4g/]
4D\	.	.	4f/
2C/	.	2c\	2e/
2BB/	.	2d\	2d/
2C/	.	1c	2e/
1GG	.	.	1d
.	.	2B\	.
=76	=76-	=76	=76
1G	0.C	1.c	0.e
2r	.	.	.
1G	.	4B\	.
.	.	4A/	.
.	.	1G	.
4F\	.	.	.
4E\	.	.	.
=77	=77-	=77	=77
2F\	0.r	2A/	0.d
1G	.	1B	.
4F\	.	4A/	.
4E\	.	4G/	.
2F\	.	2A/	.
2G\	.	2B\	.
=78	=78	=78	=78
1C	0.G	1c	0e
2r	.	2B\	.
1C	.	2c\	.
.	.	2G/	1e
4BB/	.	2c\	.
4AA/	.	.	.
=79	=79-	=79	=79
2BB/	0.G	2B\	2d/
1C	.	2G/	1e
.	.	2r	.
4BB/	.	2C/	4d/
4AA/	.	.	4c/
2BB/	.	2.G/	2d/
2C/	.	.	2e/
.	.	4A/	.
=80	=80-	=80	=80
1GG	0.G	2.B\	2.d/
.	.	4A/	4c/
2r	.	2B\	2d/
2.C/	.	2.c\	2.e/
4D\	.	4B\	4f/
2E\	.	2G/	2g/
=81	=81	=81	=81
2F\	0.F	2A/	2c/
2.D\	.	2.F/	2.f/
4C/	.	4G/	4e/
2AA/	.	2A/	2c/
2.BB-/	.	4D/	2.d/
.	.	4E/	.
.	.	4F/	.
4AA/	.	4G/	4c/
=82	=82-	=82	=82
4FF/	1F	4A/	1A
4GG/	.	4B\	.
4AA/	.	4c\	.
4BB/	.	4d\	.
2C/	0E	2e\	1r
2D\	.	1d	.
1AA	.	.	1e
.	.	2c#i\	.
=83	=83-	=83	=83
2r	0.D	1d	1.f
2D\	.	.	.
2.F\	.	2r	.
.	.	2.D/	4e/
4G\	.	.	4d/
2.A\	.	.	1f
.	.	4E/	.
.	.	2F/	.
4B\	.	.	.
=84	=84	=84	=84
2.c\	0.C	2G/	1e
.	.	2A/	.
4B\	.	.	.
2G\	.	2E/	2r
2.A\	.	2.c\	2.e/
4G\	.	4d\	4f/
2E\	.	2e\	2g/
=85	=85-	=85	=85
2.F\	0.r	2.A/	2.a/
4E\	.	4B\	4g/
2C/	.	2c\	2e/
2.D\	.	2.F/	2.f/
4C/	.	4G/	4e/
2AA/	.	2A/	2c/
=86	=86-	=86	=86
2BB/	0.r	2D/	2d/
2AA/	.	2A/	2.e/
2BB/	.	2F/	.
.	.	.	4d/
2GG/	.	2G/	1d
1AA	.	1E	.
.	.	.	2c#i/
=87	=87	=87	=87
0.Dl	0.r	0.Dl	0.dl
==	==	==	==
*-	*-	*-	*-
!!!RDF**kern: l=long note in original notation
!!!RDF**kern: i=editorial accidental
!!!ENC:	Jesse Rodin; Victoria Chang 2011/05/11
!!!SMS:	Vat 197
!!!END:	2011/05/11/
!!!EED:	Jesse Rodin
!!!EEV:	2012/10/25/
!!attribution-level@Jos: 1 (secure)
!!!ONB:	Translated from MusicXML and edited on 2011/09/09/ by Craig Sapp
!!muse2ps: T^@{OPR}^u^@{ONM}{. }@{OTL}^C^@{COM}\n@{SCT}^i2I100v92,90,90,90,150c85Q16
